X:376
T:Jenny Dang the weaver
R:Reel
O:Scotland
B:Kerr's First p6
S:Sessions- very similar to above...
Z:Transcription, chords:Mike Long
M:C|
L:1/8
K:D
e[|\
"D"dA ~A2 (AF)AB|dA ~A2 f2 ef|"G"dB ~B2 (BA)Bd|"G"ABde "A"faef|\
"D"dA ~A2 (AF)AB|dA ~A2 f2 ef|
"G"dB ~B2 (BA)Bd|"A"ABde f2 (ef)|]\
"D"defd "A"efge|"D"defd "A"e2dB|"D"defd "A"efge|
"G"abag "A"f2ef|\
"D"defd "A"efge|"D"fedf "A"edBA|"D"defd "A"efge|"G"abga "A"fgef|]
